symbolic/32x32/apps/yast-hwinfo.svg

<svg xmlns="http://www.w3.org/2000/svg" width="32" height="32" version="1">
 <rect style="opacity:0.2" width="28" height="28" x="-31" y="-30" rx="1.4" ry="1.4" transform="matrix(0,-1,-1,0,0,0)"/>
 <rect style="fill:#419d45" width="28" height="28" x="-30" y="-30" rx="1.4" ry="1.4" transform="matrix(0,-1,-1,0,0,0)"/>
 <rect style="opacity:0.2" width="10" height="10" x="11" y="12" rx="2.4" ry="2.4"/>
 <rect style="fill:#37474f" width="10" height="10" x="11" y="11" rx="2.4" ry="2.4"/>
 <g style="opacity:0.2" transform="translate(0,1)">
  <circle cx="8" cy="8" r="1"/>
  <circle cx="11" cy="8" r="1"/>
  <circle cx="14" cy="8" r="1"/>
  <circle cx="18" cy="8" r="1"/>
  <circle cx="21" cy="8" r="1"/>
  <circle cx="24" cy="8" r="1"/>
  <circle cx="24" cy="11" r="1"/>
  <circle cx="24" cy="14" r="1"/>
  <circle cx="24" cy="18" r="1"/>
  <circle cx="24" cy="21" r="1"/>
  <circle cx="24" cy="24" r="1"/>
  <circle cx="21" cy="24" r="1"/>
  <circle cx="18" cy="24" r="1"/>
  <circle cx="14" cy="24" r="1"/>
  <circle cx="11" cy="24" r="1"/>
  <circle cx="8" cy="24" r="1"/>
  <circle cx="8" cy="21" r="1"/>
  <circle cx="8" cy="18" r="1"/>
  <circle cx="8" cy="14" r="1"/>
  <circle cx="8" cy="11" r="1"/>
  <circle cx="11" cy="5" r="1"/>
  <circle cx="14" cy="5" r="1"/>
  <circle cx="18" cy="5" r="1"/>
  <circle cx="21" cy="5" r="1"/>
  <circle cx="27" cy="11" r="1"/>
  <circle cx="27" cy="14" r="1"/>
  <circle cx="27" cy="18" r="1"/>
  <circle cx="27" cy="21" r="1"/>
  <circle cx="21" cy="27" r="1"/>
  <circle cx="18" cy="27" r="1"/>
  <circle cx="14" cy="27" r="1"/>
  <circle cx="11" cy="27" r="1"/>
  <circle cx="5" cy="21" r="1"/>
  <circle cx="5" cy="18" r="1"/>
  <circle cx="5" cy="14" r="1"/>
  <circle cx="5" cy="11" r="1"/>
  <circle cx="27" cy="8" r="1"/>
  <circle cx="27" cy="5" r="1"/>
  <circle cx="24" cy="5" r="1"/>
  <circle cx="24" cy="27" r="1"/>
  <circle cx="27" cy="27" r="1"/>
  <circle cx="27" cy="24" r="1"/>
  <circle cx="5" cy="24" r="1"/>
  <circle cx="5" cy="27" r="1"/>
  <circle cx="5" cy="8" r="1"/>
 </g>
 <g style="fill:#ffdc65">
  <circle cx="8" cy="8" r="1"/>
  <circle cx="11" cy="8" r="1"/>
  <circle cx="14" cy="8" r="1"/>
  <circle cx="18" cy="8" r="1"/>
  <circle cx="21" cy="8" r="1"/>
  <circle cx="24" cy="8" r="1"/>
  <circle cx="24" cy="11" r="1"/>
  <circle cx="24" cy="14" r="1"/>
  <circle cx="24" cy="18" r="1"/>
  <circle cx="24" cy="21" r="1"/>
  <circle cx="24" cy="24" r="1"/>
  <circle cx="21" cy="24" r="1"/>
  <circle cx="18" cy="24" r="1"/>
  <circle cx="14" cy="24" r="1"/>
  <circle cx="11" cy="24" r="1"/>
  <circle cx="8" cy="24" r="1"/>
  <circle cx="8" cy="21" r="1"/>
  <circle cx="8" cy="18" r="1"/>
  <circle cx="8" cy="14" r="1"/>
  <circle cx="8" cy="11" r="1"/>
  <circle cx="11" cy="5" r="1"/>
  <circle cx="14" cy="5" r="1"/>
  <circle cx="18" cy="5" r="1"/>
  <circle cx="21" cy="5" r="1"/>
  <circle cx="27" cy="11" r="1"/>
  <circle cx="27" cy="14" r="1"/>
  <circle cx="27" cy="18" r="1"/>
  <circle cx="27" cy="21" r="1"/>
  <circle cx="21" cy="27" r="1"/>
  <circle cx="18" cy="27" r="1"/>
  <circle cx="14" cy="27" r="1"/>
  <circle cx="5" cy="24" r="1"/>
  <circle cx="5" cy="21" r="1"/>
  <circle cx="5" cy="18" r="1"/>
  <circle cx="5" cy="14" r="1"/>
  <circle cx="5" cy="11" r="1"/>
  <circle cx="27" cy="24" r="1"/>
  <circle cx="27" cy="27" r="1"/>
  <circle cx="24" cy="27" r="1"/>
  <circle cx="27" cy="8" r="1"/>
  <circle cx="27" cy="5" r="1"/>
  <circle cx="24" cy="5" r="1"/>
  <circle cx="5" cy="27" r="1"/>
  <circle cx="11" cy="27" r="1"/>
  <circle cx="5" cy="8" r="1"/>
 </g>
 <path style="fill:#ffffff;opacity:0.1" d="M 3.4004 2 C 2.6248 2 2 2.6248 2 3.4004 L 2 4.4004 C 2 3.6248 2.6248 3 3.4004 3 L 28.6 3 C 29.375 3 30 3.6248 30 4.4004 L 30 3.4004 C 30 2.6248 29.375 2 28.6 2 L 3.4004 2 z"/>
 <path style="fill:#ffffff;opacity:0.1" d="M 13.4 11 C 12.071 11 11 12.071 11 13.4 L 11 14.4 C 11 13.071 12.071 12 13.4 12 L 18.6 12 C 19.929 12 21 13.071 21 14.4 L 21 13.4 C 21 12.071 19.929 11 18.6 11 L 13.4 11 z"/>
</svg>

<svg xmlns="http://www.w3.org/2000/svg" width="32" height="32" version="1"><rect style="opacity:.2" width="28" height="28" x="-31" y="-30" rx="1.4" ry="1.4" transform="matrix(0 -1 -1 0 0 0)"/><rect style="fill:#419d45" width="28" height="28" x="-30" y="-30" rx="1.4" ry="1.4" transform="matrix(0 -1 -1 0 0 0)"/><rect style="opacity:.2" width="10" height="10" x="11" y="12" rx="2.4" ry="2.4"/><rect style="fill:#37474f" width="10" height="10" x="11" y="11" rx="2.4" ry="2.4"/><g style="opacity:.2" transform="translate(0 1)"><circle cx="8" cy="8" r="1"/><circle cx="11" cy="8" r="1"/><circle cx="14" cy="8" r="1"/><circle cx="18" cy="8" r="1"/><circle cx="21" cy="8" r="1"/><circle cx="24" cy="8" r="1"/><circle cx="24" cy="11" r="1"/><circle cx="24" cy="14" r="1"/><circle cx="24" cy="18" r="1"/><circle cx="24" cy="21" r="1"/><circle cx="24" cy="24" r="1"/><circle cx="21" cy="24" r="1"/><circle cx="18" cy="24" r="1"/><circle cx="14" cy="24" r="1"/><circle cx="11" cy="24" r="1"/><circle cx="8" cy="24" r="1"/><circle cx="8" cy="21" r="1"/><circle cx="8" cy="18" r="1"/><circle cx="8" cy="14" r="1"/><circle cx="8" cy="11" r="1"/><circle cx="11" cy="5" r="1"/><circle cx="14" cy="5" r="1"/><circle cx="18" cy="5" r="1"/><circle cx="21" cy="5" r="1"/><circle cx="27" cy="11" r="1"/><circle cx="27" cy="14" r="1"/><circle cx="27" cy="18" r="1"/><circle cx="27" cy="21" r="1"/><circle cx="21" cy="27" r="1"/><circle cx="18" cy="27" r="1"/><circle cx="14" cy="27" r="1"/><circle cx="11" cy="27" r="1"/><circle cx="5" cy="21" r="1"/><circle cx="5" cy="18" r="1"/><circle cx="5" cy="14" r="1"/><circle cx="5" cy="11" r="1"/><circle cx="27" cy="8" r="1"/><circle cx="27" cy="5" r="1"/><circle cx="24" cy="5" r="1"/><circle cx="24" cy="27" r="1"/><circle cx="27" cy="27" r="1"/><circle cx="27" cy="24" r="1"/><circle cx="5" cy="24" r="1"/><circle cx="5" cy="27" r="1"/><circle cx="5" cy="8" r="1"/></g><g style="fill:#ffdc65"><circle cx="8" cy="8" r="1"/><circle cx="11" cy="8" r="1"/><circle cx="14" cy="8" r="1"/><circle cx="18" cy="8" r="1"/><circle cx="21" cy="8" r="1"/><circle cx="24" cy="8" r="1"/><circle cx="24" cy="11" r="1"/><circle cx="24" cy="14" r="1"/><circle cx="24" cy="18" r="1"/><circle cx="24" cy="21" r="1"/><circle cx="24" cy="24" r="1"/><circle cx="21" cy="24" r="1"/><circle cx="18" cy="24" r="1"/><circle cx="14" cy="24" r="1"/><circle cx="11" cy="24" r="1"/><circle cx="8" cy="24" r="1"/><circle cx="8" cy="21" r="1"/><circle cx="8" cy="18" r="1"/><circle cx="8" cy="14" r="1"/><circle cx="8" cy="11" r="1"/><circle cx="11" cy="5" r="1"/><circle cx="14" cy="5" r="1"/><circle cx="18" cy="5" r="1"/><circle cx="21" cy="5" r="1"/><circle cx="27" cy="11" r="1"/><circle cx="27" cy="14" r="1"/><circle cx="27" cy="18" r="1"/><circle cx="27" cy="21" r="1"/><circle cx="21" cy="27" r="1"/><circle cx="18" cy="27" r="1"/><circle cx="14" cy="27" r="1"/><circle cx="5" cy="24" r="1"/><circle cx="5" cy="21" r="1"/><circle cx="5" cy="18" r="1"/><circle cx="5" cy="14" r="1"/><circle cx="5" cy="11" r="1"/><circle cx="27" cy="24" r="1"/><circle cx="27" cy="27" r="1"/><circle cx="24" cy="27" r="1"/><circle cx="27" cy="8" r="1"/><circle cx="27" cy="5" r="1"/><circle cx="24" cy="5" r="1"/><circle cx="5" cy="27" r="1"/><circle cx="11" cy="27" r="1"/><circle cx="5" cy="8" r="1"/></g><path style="fill:#fff;opacity:.1" d="M3.4 2C2.625 2 2 2.625 2 3.4v1C2 3.625 2.625 3 3.4 3h25.2c.775 0 1.4.625 1.4 1.4v-1c0-.775-.625-1.4-1.4-1.4H3.4zM13.4 11a2.396 2.396 0 0 0-2.4 2.4v1c0-1.329 1.071-2.4 2.4-2.4h5.2c1.329 0 2.4 1.071 2.4 2.4v-1c0-1.329-1.071-2.4-2.4-2.4h-5.2z"/></svg>
